src/assets/icon/ic_telephone.svg

<svg width="430" height="430" viewBox="0 0 430 430" fill="none" xmlns="http://www.w3.org/2000/svg">
<path d="M87.6206 285.835C130.033 336.533 181.087 376.45 239.359 404.695C261.545 415.209 291.216 427.683 324.272 429.822C326.321 429.911 328.282 430 330.331 430C352.517 430 370.337 422.337 384.861 406.566C384.95 406.477 385.128 406.299 385.217 406.121C390.385 399.884 396.266 394.271 402.414 388.301C406.601 384.291 410.878 380.104 414.977 375.827C433.955 356.046 433.955 330.92 414.799 311.763L361.249 258.214C352.161 248.769 341.29 243.78 329.886 243.78C318.481 243.78 307.521 248.769 298.166 258.125L266.268 290.023C263.327 288.33 260.298 286.815 257.447 285.39C253.883 283.608 250.586 281.915 247.646 280.043C218.599 261.6 192.225 237.542 167.009 206.625C154.268 190.497 145.714 176.954 139.745 163.143C148.12 155.57 155.961 147.64 163.534 139.888C166.207 137.126 168.97 134.364 171.732 131.602C181.355 121.979 186.522 110.841 186.522 99.5255C186.522 88.2097 181.444 77.0721 171.732 67.4492L145.18 40.8972C142.061 37.7787 139.121 34.7493 136.091 31.6307C130.211 25.5719 124.063 19.3349 118.004 13.7215C108.827 4.72234 98.0453 0 86.6405 0C75.3247 0 64.4544 4.72234 54.9206 13.8106L21.5969 47.1343C9.47919 59.252 2.61843 73.9536 1.19282 90.9718C-0.500094 112.267 3.42034 134.898 13.5778 162.252C29.1705 204.575 52.6931 243.869 87.6206 285.835ZM22.9334 92.8429C24.0026 80.9925 28.5468 71.1024 37.1004 62.5487L70.2459 29.4032C75.4138 24.4136 81.1162 21.8297 86.6405 21.8297C92.0756 21.8297 97.5998 24.4136 102.679 29.5814C108.648 35.1057 114.262 40.8972 120.321 47.0452C123.35 50.1637 126.468 53.2822 129.587 56.4898L156.139 83.0419C161.663 88.5661 164.515 94.1794 164.515 99.7037C164.515 105.228 161.663 110.841 156.139 116.366C153.377 119.128 150.615 121.979 147.853 124.741C139.566 133.116 131.815 141.046 123.261 148.62C123.083 148.798 122.994 148.887 122.815 149.065C115.42 156.461 116.578 163.5 118.36 168.846C118.449 169.113 118.539 169.291 118.628 169.559C125.488 186.042 135.022 201.724 149.902 220.435C176.632 253.402 204.788 278.974 235.795 298.666C239.626 301.16 243.725 303.121 247.556 305.081C251.12 306.863 254.417 308.556 257.357 310.427C257.714 310.605 257.981 310.783 258.338 310.961C261.278 312.476 264.129 313.189 266.98 313.189C274.108 313.189 278.742 308.645 280.256 307.13L313.58 273.806C318.748 268.639 324.361 265.876 329.886 265.876C336.657 265.876 342.181 270.064 345.656 273.806L399.384 327.445C410.076 338.137 409.987 349.72 399.117 361.036C395.375 365.046 391.454 368.877 387.266 372.886C381.029 378.945 374.525 385.182 368.644 392.221C358.398 403.27 346.191 408.438 330.42 408.438C328.905 408.438 327.302 408.349 325.787 408.259C296.562 406.388 269.386 394.983 248.982 385.271C193.561 358.452 144.912 320.406 104.55 272.114C71.3151 232.107 48.9508 194.863 34.1601 154.946C24.9827 130.443 21.5078 110.752 22.9334 92.8429Z" fill="white"/>
</svg>

<svg width="430" height="430" fill="none" xmlns="http://www.w3.org/2000/svg"><path d="M87.62 285.835c42.413 50.698 93.467 90.615 151.739 118.86 22.186 10.514 51.857 22.988 84.913 25.127 2.049.089 4.01.178 6.059.178 22.186 0 40.006-7.663 54.53-23.434.089-.089.267-.267.356-.445 5.168-6.237 11.049-11.85 17.197-17.82 4.187-4.01 8.464-8.197 12.563-12.474 18.978-19.781 18.978-44.907-.178-64.064l-53.55-53.549c-9.088-9.445-19.959-14.434-31.363-14.434-11.405 0-22.365 4.989-31.72 14.345l-31.898 31.898c-2.941-1.693-5.97-3.208-8.821-4.633-3.564-1.782-6.861-3.475-9.801-5.347-29.047-18.443-55.421-42.501-80.637-73.418-12.741-16.128-21.295-29.671-27.264-43.482 8.375-7.573 16.216-15.503 23.789-23.255 2.673-2.762 5.436-5.524 8.198-8.286 9.623-9.623 14.79-20.761 14.79-32.077 0-11.315-5.078-22.453-14.79-32.076L145.18 40.897c-3.119-3.118-6.059-6.148-9.089-9.266-5.88-6.06-12.028-12.296-18.087-17.91C108.827 4.723 98.045 0 86.64 0 75.326 0 64.454 4.722 54.92 13.81L21.598 47.135C9.479 59.252 2.618 73.954 1.193 90.972c-1.693 21.295 2.227 43.926 12.385 71.28 15.593 42.323 39.115 81.617 74.043 123.583zM22.934 92.843c1.07-11.85 5.614-21.74 14.167-30.294l33.146-33.146c5.168-4.99 10.87-7.573 16.395-7.573 5.435 0 10.959 2.584 16.038 7.751 5.969 5.525 11.583 11.316 17.642 17.464 3.029 3.119 6.147 6.237 9.266 9.445l26.552 26.552c5.524 5.524 8.376 11.137 8.376 16.662 0 5.524-2.852 11.137-8.376 16.662-2.762 2.762-5.524 5.613-8.286 8.375-8.287 8.375-16.038 16.305-24.592 23.879l-.446.445c-7.395 7.396-6.237 14.435-4.455 19.781.089.267.179.445.268.713 6.86 16.483 16.394 32.165 31.274 50.876 26.73 32.967 54.886 58.539 85.893 78.231 3.831 2.494 7.93 4.455 11.761 6.415 3.564 1.782 6.861 3.475 9.801 5.346.357.178.624.356.981.534 2.94 1.515 5.791 2.228 8.642 2.228 7.128 0 11.762-4.544 13.276-6.059l33.324-33.324c5.168-5.167 10.781-7.93 16.306-7.93 6.771 0 12.295 4.188 15.77 7.93l53.728 53.639c10.692 10.692 10.603 22.275-.267 33.591-3.742 4.01-7.663 7.841-11.851 11.85-6.237 6.059-12.741 12.296-18.622 19.335-10.246 11.049-22.453 16.217-38.224 16.217-1.515 0-3.118-.089-4.633-.179-29.225-1.871-56.401-13.276-76.805-22.988-55.421-26.819-104.07-64.865-144.432-113.157-33.235-40.007-55.6-77.251-70.39-117.168-9.177-24.503-12.652-44.194-11.227-62.103z" fill="#fff"/></svg>
